!!!ONB: MCCC : IAD0035_05 : Extracted Monophonic Melody
!!!COM: Dvořák, Antonín
!!!OPR: Legends
!!!OMV: 5
!!!SCT: Op.59 ; B.117 (piano duet), B.122 (orchestra)
!!!ODT: 1881///
**kern
*staff1
*clefG2
*k[b-e-a-d-g-]
*D-:
*M4/4
8a-
8b-
8cc
8cc
8b-
4dd-
=2
4cc
4ee-
2ee-[
=3
8ee-]
8ee-
4ff
8gg-
8ff
[4aa-
=4
1aa-]
=5
8r
8aa-
8bb-
8ccc-
16bb-
16bb-
[8aa-
4aa-]
=6
8aa-
8eee-
4r
2r
=7
2r
4r
8aa-
8bb-
=8
8ccc
8eee-
8ccc
8fff
8bb-
8fff
8ccc-
8ggg
=9
8eee-
8ccc
4aaa-
4r
8fff
8ddd-
=10
2aaa-
4r
8fff
8ddd-
=11
2aaa-
4r
8fff
8ddd-
=12
2aaa-
4ggg
4fff
=13
2eee-
4ccc
8bb-
8aa-
=14
1eee-
=15
8r
8aa-
8bb-
[8ccc
8ccc_
8ccc]
4ddd-
=16
4ccc
2.eee-[
=17
8eee-]
8eee-
4fff
8ggg-
8fff
4aaa-[
=18
2aaa-]
2aaa-
=19
2r
4r
8fff-
8fff-
=20
4aa-
4r
4r
8ff-
8ff-
=21
4a-
4r
2r
=22
8ccc
8eee-
8ccc
8fff
8ddd-
8fff
8ccc-
8ggg
=23
8eee-
8ccc
4aaa-
4r
8fff
8ddd-
=24
2aaa-
4r
8fff
8ddd-
=25
2aaa-
4r
8fff
8ddd-
=26
2aaa-
4ggg
4fff
=27
2eee-
4ccc
8bb-
8aa-
=28
1eee-
=29
*M6/4
2.eee-
4r
4r
8r
8ee-
=30
*M4/4
8dd-
8gg-
8r
8cc-
8dd-
8gg-
8r
8cc-
=31
4dd-
4gg-
8ff-
16ee-
16dd-
4ee-
=32
4ff-
8r
8eee-
8ddd-
8ggg-
8r
8ccc-
=33
8ddd-
8ggg-
8ccc-
8ddd-
4ggg-
8ggg-
8fff-
=34
8fff-
8eee-[
4eee-]
8ddd-
4.ee-
=35
4ddd-
4r
8r
8ccc
8ddd-
8dd-
=36
8r
8ccc
8ddd-
8dd-
8r
8aaa-[
16aaa-]
16ddd-
16fff
16aaa-
=37
16bbb-
16eee-
16fff
16ggg-
16aaa-
16aa-
16bb-
16aa-
8aa-
16fff
16eee-
4ddd-
=38
8r
16ccc
16eee-
8bb-
8ddd-
8r
16ccc
16eee-
8bb-
8ddd-
=39
8r
8aaa-[
16aaa-]
16ddd-
16fff
16aaa-
16bbb-
16eee-
16fff
16ggg-
16aaa-
16aa-
16bb-
16aa-
=40
8aa-
16fff
16eee-
4ddd-[
8ddd-]
16fff
16eee-
4ddd-[
=41
8ddd-]
16fff
16eee-
8ddd-
16fff
16eee-
4ddd-
4r
=42
8r
8gg-
8ff
8ccc-
8r
8gg-
8ff
8ccc-
=43
8r
8gg-
8ff
8aa-
8gg-
8aa
8aa-
8ccc-
=44
8ccc-
8aa
8aa-
8gg-
8aa
8aa-
8gg-
8ff-
=45
8aa-
8gg-
8ff-
8dd
4dd-
8r
8ff
=46
8ee-
8gg-
8r
8ff
8ee-
8gg-
8r
8ff
=47
8ee-
8gg-
8ff
8ee-
4dd-
8bb-
8aa
=48
2.bb-
4fff
=49
4eee-
4ggg-
4fff
4r
=50
8ff
8bb-
8r
8gg
8ff
8bb-
8r
8gg
=51
8ff
8bb-
8ccc
8ddd
4.ddd
16ccc
16bb-
=52
1fff
=53
4.ddd
16ccc
16bb-
2ddd
=54
8bbb-
8ddd-
8ggg-
8aa
8ddd-
8ff
8bb-
8cc
=55
4ff
8r
8fff
4fff
8r
8fff
=56
4.fff
16eee-
16ddd-
4.ccc
16ddd-
16eee-
=57
4ddd-
4ddd-
4ddd-
8ccc
8eee-
=58
4ddd-
4r
2r
=59
16r
32ff
32gg
8ff
8ee
8gg
4ff
4gg
=60
8ccc
8fff
8eee
8ggg
4fff
4ccc
=61
8r
8fff
8eee
8ggg
4fff
4ccc
=62
4fff
4ccc
4fff
4ccc
=63
1fff
=64
1fff-
=65
8eee-
8ccc
8eee-
8bb-
8ccc
8aa-
8bb-
8ee-
=66
8aa-
8ee-
8ff
8cc
8ee-
8a-
8b-
8e-
=67
8r
8a-
8b-
8cc
4cc
4g
=68
4cc
2.ee-[
=69
4ee-]
4r
2r
=70
1r
=71
2r
4r
8fff-
8fff-
=72
4aa-
4r
2r
=73
2r
4r
8aa-
8bb-
=74
8ccc
8eee-
8ccc
8fff
8ddd-
8fff
8ccc-
8ggg
=75
8eee-
8ccc
4aaa-
4r
8fff
8ddd-
=76
2aaa-
4r
8fff
8ddd-
=77
2aaa-
4r
8fff
8ddd-
=78
2aaa-
4ggg
4fff
=79
2eee-
4ccc
8bb-
8aa-
=80
1eee-[
=81
2.eee-]
8r
8gg
=82
8ff
8bb-
8r
8ee-
8ff
8bb-
8r
8ee-
=83
4ff
4bb-
8aa-
16gg
16ff
4gg
=84
[1aa-
=85
1aa-]
==
*-
